X: 134
T:Oirird Ponnlhin
% Nottingham Music Database
S:AF2BC, via EF
M:6/8
K:G
P:A
|!/2B/2|"A"c2e "D/fF+"d2g|"D"f3 -fgf|"D"fed cAA|"G"BGG "A"A2::
P:B
|:A/2G/2|"D"F2A f2d|"Am"e GA Ddd|"A"G2g "A"A2e|"D"dfe d2c|
"B7"def "D"""fm"afg|"A"eec "E7"g2g|"D"f2d "Bm"A2A|
"D"d2d AAd|g2f a3|"D"=fge fed|"G"BGB GGB|
"G"Bcd AAF|BDG d,||
"A"EFF A2F|"C"EEG GFB|"A"Edc cce|"D"fgf A2c|
"D"agf "A7"agg|"D"agf "A"agf|"Em"a2d "A"A2:|
(F
"A"FED EDF|"D"F2A "D#Am"AGF|"A"A3 -A2:|


